static/images/switchain-logo.svg

<svg height="100" viewBox="0 0 100 100" width="100" xmlns="http://www.w3.org/2000/svg"><path d="m57.6923077 30.7692308c6.1449265 0 11.1679265 4.8035383 11.5188742 10.8604892l.0195873.6779723v9.6153846h-11.5384615v-9.6153846h-46.1538462v46.1538462h46.1538462v-13.4615385h11.5384615v13.4615385c0 6.1449265-4.8035384 11.1679265-10.8604892 11.5188742l-.6779723.0195873h-46.1538462c-6.14492642 0-11.16792642-4.8035385-11.51887422-10.8604892l-.01958728-.6779723v-46.1538462c0-6.1449265 4.80353831-11.1679265 10.8604893-11.5188743l.6779722-.0195872zm-15.3846154 38.4615384c-6.1449265 0-11.1679265-4.8035384-11.5188743-10.8604892l-.0195872-.6779723v-9.6153846h11.5384615v9.6153846h46.1538462v-46.1538462h-46.1538462v13.4615385h-11.5384615v-13.4615385c0-6.14492642 4.8035383-11.16792642 10.8604892-11.51887422l.6779723-.01958728h46.1538462c6.1449265 0 11.1679265 4.80353831 11.5188742 10.8604893l.0195873.6779722v46.1538462c0 6.1449265-4.8035385 11.1679265-10.8604892 11.5188742l-.6779723.0195873z" fill="#6555fa"/></svg>

<?xml version="1.0" encoding="UTF-8"?>
<svg width="100px" height="100px" viewBox="0 0 100 100" version="1.1" xmlns="http://www.w3.org/2000/svg" xmlns:xlink="http://www.w3.org/1999/xlink">
    <!-- Generator: Sketch 63.1 (92452) - https://sketch.com -->
    <title>switchain-logo</title>
    <desc>Created with Sketch.</desc>
    <g id="Page-1" stroke="none" stroke-width="1" fill="none" fill-rule="evenodd">
        <g id="switchain-logo" fill="#6555FA" fill-rule="nonzero">
            <path d="M57.6923077,30.7692308 C63.8372342,30.7692308 68.8602342,35.5727691 69.2111819,41.62972 L69.2307692,42.3076923 L69.2307692,51.9230769 L57.6923077,51.9230769 L57.6923077,42.3076923 L11.5384615,42.3076923 L11.5384615,88.4615385 L57.6923077,88.4615385 L57.6923077,75 L69.2307692,75 L69.2307692,88.4615385 C69.2307692,94.606465 64.4272308,99.629465 58.37028,99.9804127 L57.6923077,100 L11.5384615,100 C5.39353508,100 0.370535079,95.1964615 0.0195872823,89.1395108 L0,88.4615385 L0,42.3076923 C0,36.1627658 4.80353831,31.1397658 10.8604893,30.788818 L11.5384615,30.7692308 L57.6923077,30.7692308 Z M42.3076923,69.2307692 C36.1627658,69.2307692 31.1397658,64.4272308 30.788818,58.37028 L30.7692308,57.6923077 L30.7692308,48.0769231 L42.3076923,48.0769231 L42.3076923,57.6923077 L88.4615385,57.6923077 L88.4615385,11.5384615 L42.3076923,11.5384615 L42.3076923,25 L30.7692308,25 L30.7692308,11.5384615 C30.7692308,5.39353508 35.5727691,0.370535079 41.62972,0.0195872823 L42.3076923,0 L88.4615385,0 C94.606465,0 99.629465,4.80353831 99.9804127,10.8604893 L100,11.5384615 L100,57.6923077 C100,63.8372342 95.1964615,68.8602342 89.1395108,69.2111819 L88.4615385,69.2307692 L42.3076923,69.2307692 Z" id="symbol"></path>
        </g>
    </g>
</svg>
